icons/svg/subway/subway_paris.svg

<?xml version="1.0" encoding="UTF-8" standalone="no"?>
<svg
   xmlns:dc="http://purl.org/dc/elements/1.1/"
   xmlns:cc="http://creativecommons.org/ns#"
   xmlns:rdf="http://www.w3.org/1999/02/22-rdf-syntax-ns#"
   xmlns:svg="http://www.w3.org/2000/svg"
   xmlns="http://www.w3.org/2000/svg"
   xmlns:sodipodi="http://sodipodi.sourceforge.net/DTD/sodipodi-0.dtd"
   xmlns:inkscape="http://www.inkscape.org/namespaces/inkscape"
   width="16"
   height="16"
   id="svg2"
   version="1.1"
   inkscape:version="0.91 r"
   sodipodi:docname="subway_paris.svg">
  <defs
     id="defs13" />
  <sodipodi:namedview
     pagecolor="#ffffff"
     bordercolor="#666666"
     borderopacity="1"
     objecttolerance="10"
     gridtolerance="10"
     guidetolerance="10"
     inkscape:pageopacity="0"
     inkscape:pageshadow="2"
     inkscape:window-width="1920"
     inkscape:window-height="1004"
     id="namedview11"
     showgrid="true"
     inkscape:zoom="45.254834"
     inkscape:cx="6.1382244"
     inkscape:cy="7.8665353"
     inkscape:window-x="1680"
     inkscape:window-y="0"
     inkscape:window-maximized="1"
     inkscape:current-layer="svg2"
     showguides="false">
    <sodipodi:guide
       position="0,0"
       orientation="0,580"
       id="guide2989" />
    <sodipodi:guide
       position="580,0"
       orientation="-580,0"
       id="guide2991" />
    <sodipodi:guide
       position="580,580"
       orientation="0,-580"
       id="guide2993" />
    <sodipodi:guide
       position="0,580"
       orientation="580,0"
       id="guide2995" />
    <sodipodi:guide
       position="0,0"
       orientation="0,580"
       id="guide2997" />
    <sodipodi:guide
       position="580,0"
       orientation="-580,0"
       id="guide2999" />
    <sodipodi:guide
       position="580,580"
       orientation="0,-580"
       id="guide3001" />
    <sodipodi:guide
       position="0,580"
       orientation="580,0"
       id="guide3003" />
    <inkscape:grid
       type="xygrid"
       id="grid3013"
       empspacing="5"
       visible="true"
       enabled="true"
       snapvisiblegridlinesonly="true" />
  </sodipodi:namedview>
  <metadata
     id="metadata2975">image/svg+xmlen<rdf:RDF>
  <cc:Work
     rdf:about="">
    <dc:format>image/svg+xml</dc:format>
    <dc:type
       rdf:resource="http://purl.org/dc/dcmitype/StillImage" />
    <dc:title />
  </cc:Work>
</rdf:RDF>
</metadata>
  <path
     sodipodi:type="inkscape:offset"
     inkscape:radius="0.70770127"
     inkscape:original="M 8.0175781 0.72460938 C 3.9975677 0.72460938 0.72460938 3.9971209 0.72460938 8.0351562 C 0.72460938 12.036593 3.9975677 15.275391 8.0175781 15.275391 C 12.037588 15.275391 15.275391 12.054508 15.275391 8.0351562 C 15.275391 3.9971208 11.892034 0.72460937 8.0175781 0.72460938 z "
     style="opacity:1;fill:#fefefe;fill-opacity:1"
     id="path4214"
     d="m 8.0175781,0.01757813 c -4.4040824,0 -7.99999997,3.59713297 -7.99999997,8.01757807 0,4.3873448 3.59987427,7.9472658 7.99999997,7.9472658 4.3980229,0 7.9648439,-3.547853 7.9648439,-7.9472658 0,-4.4333441 -3.691887,-8.01757809 -7.9648439,-8.01757807 z"
     transform="matrix(0.53684322,0,0,0.53684322,3.7052543,3.7052543)" />
  <path
     inkscape:connector-curvature="0"
     d="m 11.740608,8.0185527 c 0,-2.076 -1.739495,-3.7591609 -3.7313972,-3.7591609 -2.0667332,0 -3.749819,1.6831609 -3.749819,3.7591609 0,2.0571843 1.6830858,3.7220553 3.749819,3.7220553 2.0667332,0 3.7313972,-1.655661 3.7313972,-3.7220553"
     id="path3157"
     style="fill:#14489e;fill-opacity:1" />
  <path
     inkscape:connector-curvature="0"
     d="m 11.226304,8.0185527 c 0,1.7581607 -1.4493648,3.2258883 -3.2170745,3.2258883 -1.7764882,0 -3.2355135,-1.4490618 -3.2355135,-3.2258883 0,-1.7857739 1.4590253,-3.2637465 3.2355135,-3.2637465 1.7676911,0 3.2170745,1.4870515 3.2170745,3.2637465 z"
     id="path3155"
     style="fill:#fefefe;fill-opacity:1" />
  <path
     inkscape:connector-curvature="0"
     d="m 9.8606612,9.6736685 0,-3.2634458 c 0,-0.1869363 -0.1024813,-0.3833465 -0.4112603,-0.3833465 -0.2334031,0 -0.3272746,0.1028949 -0.4300193,0.3087976 l -1.0101708,2.1039323 -0.00921,0 L 6.9805998,6.3356738 C 6.8777049,6.1297711 6.7843212,6.0268762 6.5503358,6.0268762 c -0.3085343,0 -0.4114481,0.1964102 -0.4114481,0.3833465 l 0,3.2634458 c 0,0.1781773 0.1404514,0.2806205 0.3085532,0.2806205 0.1495116,0 0.3178766,-0.1024432 0.3178766,-0.2806205 l 0,-2.431151 0.00949,0 0.9257348,1.8889323 c 0.06547,0.1309584 0.1498122,0.2060712 0.2994555,0.2060712 0.1493798,0 0.2337221,-0.075113 0.299305,-0.2060712 l 0.9255846,-1.8889323 0.00951,0 0,2.431151 c 0,0.1781773 0.1680826,0.2806205 0.317745,0.2806205 0.168628,0 0.3085152,-0.1024432 0.3085152,-0.2806205 z"
     id="path3"
     style="fill:#14489e;fill-opacity:1" />
</svg>

<svg width="16" height="16" viewBox="0 0 16 16" fill="none" xmlns="http://www.w3.org/2000/svg">
<path d="M8.00941 3.71469C5.6451 3.71469 3.71466 5.64579 3.71466 8.01887C3.71466 10.3742 5.64723 12.2853 8.00941 12.2853C10.3705 12.2853 12.2853 10.3807 12.2853 8.01887C12.2853 5.63886 10.3033 3.71469 8.00941 3.71469V3.71469Z" fill="#FEFEFE"/>
<path d="M11.7406 8.01856C11.7406 5.94256 10.0011 4.2594 8.00922 4.2594C5.94249 4.2594 4.2594 5.94256 4.2594 8.01856C4.2594 10.0757 5.94249 11.7406 8.00922 11.7406C10.076 11.7406 11.7406 10.085 11.7406 8.01856Z" fill="#14489E"/>
<path d="M11.2263 8.01854C11.2263 9.7767 9.77697 11.2444 8.00926 11.2444C6.23277 11.2444 4.77374 9.79536 4.77374 8.01854C4.77374 6.23276 6.23277 4.75479 8.00926 4.75479C9.77695 4.75479 11.2263 6.24184 11.2263 8.01854V8.01854Z" fill="#FEFEFE"/>
<path d="M9.86069 9.67368V6.41023C9.86069 6.2233 9.75821 6.02689 9.44943 6.02689C9.21603 6.02689 9.12215 6.12978 9.01941 6.33568L8.00924 8.43962H8.00003L6.98063 6.33568C6.87773 6.12978 6.78435 6.02689 6.55036 6.02689C6.24183 6.02689 6.13892 6.2233 6.13892 6.41023V9.67368C6.13892 9.85186 6.27937 9.9543 6.44747 9.9543C6.59698 9.9543 6.76535 9.85186 6.76535 9.67368V7.24253H6.77484L7.70057 9.13146C7.76604 9.26242 7.85038 9.33753 8.00003 9.33753C8.14941 9.33753 8.23375 9.26242 8.29933 9.13146L9.22492 7.24253H9.23443V9.67368C9.23443 9.85186 9.40251 9.9543 9.55217 9.9543C9.7208 9.9543 9.86069 9.85186 9.86069 9.67368H9.86069Z" fill="#14489E"/>
</svg>
